images/nav-ico-3.svg

<svg width="47" height="48" viewBox="0 0 47 48" fill="none" xmlns="http://www.w3.org/2000/svg">
<g filter="url(#filter0_d)">
<path d="M42.037 32.1881H33.7502C33.4851 32.1881 33.2688 32.4061 33.2688 32.6734C33.2688 32.9407 33.4851 33.1587 33.7502 33.1587H42.037C42.3022 33.1587 42.5185 32.9407 42.5185 32.6734C42.5185 32.4061 42.3022 32.1881 42.037 32.1881Z" fill="white"/>
<path d="M42.037 38.34H32.7459C32.4807 38.34 32.2644 38.558 32.2644 38.8253C32.2644 39.0926 32.4807 39.3106 32.7459 39.3106H42.037C42.3022 39.3106 42.5185 39.0926 42.5185 38.8253C42.5185 38.558 42.3022 38.34 42.037 38.34Z" fill="white"/>
<path d="M4.48148 35.6916H11.9743C12.2395 35.6916 12.4558 35.4736 12.4558 35.2063C12.4558 34.939 12.2395 34.7209 11.9743 34.7209H4.48148C4.21629 34.7209 4 34.939 4 35.2063C4 35.4755 4.21629 35.6916 4.48148 35.6916Z" fill="white"/>
<path fill-rule="evenodd" clip-rule="evenodd" d="M7.74481 0.53458C7.93098 0.441691 8.15292 0.479604 8.29962 0.627475L8.29986 0.627703C8.44468 0.775549 8.48229 1.00114 8.38825 1.18883C8.08921 1.79168 7.93875 2.43434 7.93875 3.09976C7.93875 5.47703 9.86843 7.41262 12.2382 7.41262C12.9021 7.41262 13.5435 7.25906 14.1453 6.95953C14.3315 6.86664 14.5534 6.90455 14.7001 7.05242C14.8468 7.20027 14.8826 7.42587 14.7904 7.61165C13.8933 9.42591 12.0877 10.552 10.079 10.552C7.1768 10.552 4.81644 8.1802 4.81644 5.26641C4.81644 3.2474 5.93925 1.43508 7.74481 0.53458ZM13.1276 8.30699C12.8342 8.35818 12.5389 8.38283 12.238 8.38283L12.2381 8.383C9.33594 8.383 6.97557 6.01315 6.97745 3.09936C6.97745 2.79604 7.0019 2.49838 7.05268 2.20453C6.24772 2.99885 5.7794 4.09081 5.7794 5.2662C5.7794 7.64536 7.70908 9.58095 10.0789 9.58095C11.2506 9.58095 12.3358 9.11272 13.1276 8.30699Z" fill="white"/>
<path fill-rule="evenodd" clip-rule="evenodd" d="M42.039 24.4099H42.0371C41.7719 24.4099 41.5575 24.6261 41.5556 24.8934L41.5443 27.4848L23.677 0.923499C23.4983 0.656197 23.0601 0.656197 22.8796 0.923499L5.02529 27.4659L5.03658 24.7151C5.03846 24.4478 4.82217 24.2279 4.55698 24.2279H4.5551C4.28991 24.2279 4.0755 24.4441 4.07362 24.7114L4.05669 29.0527C4.05481 29.2669 4.19399 29.4546 4.39523 29.519C4.44225 29.5342 4.48927 29.5399 4.53817 29.5399C4.69428 29.5399 4.84474 29.4621 4.9369 29.3275L7.74677 25.1512V29.0564C7.74677 29.3237 7.96306 29.5418 8.22826 29.5418H18.9523C19.4996 31.3314 21.1603 32.6357 23.1201 32.6357C23.1266 32.6357 23.1327 32.6352 23.1388 32.6347L23.1389 32.6347C23.145 32.6342 23.1511 32.6338 23.1577 32.6338C23.1605 32.6338 23.1638 32.6342 23.1671 32.6347L23.1671 32.6347L23.1672 32.6347C23.1704 32.6352 23.1737 32.6357 23.1765 32.6357C23.1825 32.6357 23.1884 32.6351 23.1944 32.6343L23.2047 32.6328C23.2141 32.6314 23.2235 32.63 23.2329 32.63C25.1419 32.5807 26.75 31.2953 27.2861 29.5418H38.3303C38.5955 29.5418 38.8118 29.3237 38.8118 29.0564V25.1511L41.6216 29.3275C41.7401 29.5038 41.9583 29.5816 42.1595 29.519C42.3608 29.4564 42.5 29.2688 42.5 29.0564L42.5188 24.8971C42.5207 24.6279 42.3062 24.4118 42.0392 24.4099L42.039 24.4099ZM23.2328 31.6596L23.2274 31.66C23.2031 31.6617 23.1803 31.6634 23.1575 31.6634C22.3225 31.652 21.6454 30.9695 21.6454 30.1316C21.6454 29.58 22.4504 28.3098 23.1764 27.3524C23.9023 28.3098 24.7073 29.5799 24.7073 30.1316C24.7073 30.9563 24.0509 31.6293 23.2328 31.6596L23.2328 31.6596ZM25.6684 30.1297C25.6684 30.2738 25.6496 30.4103 25.627 30.5468L25.627 30.5468C26.1781 29.9402 26.5166 29.1382 26.5129 28.2567C26.5129 26.8027 24.3236 23.7088 23.1161 22.1694C21.9106 23.7088 19.7194 26.8045 19.7194 28.2567C19.7194 29.2122 20.1163 30.0766 20.7501 30.6965C20.7087 30.5126 20.6805 30.325 20.6805 30.1297C20.6805 28.9012 22.4503 26.6926 22.8039 26.2623C22.9864 26.0405 23.3625 26.0405 23.545 26.2623C23.9005 26.6927 25.6684 28.9013 25.6684 30.1297ZM23.4905 21.0889C23.308 20.8671 22.9319 20.8671 22.7494 21.0889C22.3413 21.5837 18.7602 25.9969 18.7602 28.257C18.7602 28.3331 18.7651 28.4083 18.7699 28.4831V28.4832C18.7718 28.5127 18.7737 28.5422 18.7753 28.5717H13.9268V25.3717C14.555 24.8598 16.637 23.0854 18.7454 20.452C20.457 18.3155 22.4111 15.2955 23.2969 11.8527C24.1828 15.2973 26.1369 18.3152 27.8484 20.452C29.9568 23.0852 32.0388 24.8597 32.6671 25.3717V28.5717H27.4628C27.4703 28.4675 27.4778 28.3632 27.4778 28.257C27.4797 25.9973 23.8987 21.5839 23.4906 21.0889H23.4905ZM33.6278 28.5715H37.8482L37.8507 23.7203L23.2801 2.06108L8.70954 23.7203V28.5715H12.962V25.1364C12.962 24.9847 13.0316 24.8426 13.1501 24.7516L13.1504 24.7513C13.2666 24.6595 22.8134 17.1171 22.8134 8.19016C22.8134 7.92285 23.0297 7.70484 23.2949 7.70484C23.5601 7.70484 23.7764 7.92285 23.7764 8.19016C23.7764 17.114 33.3165 24.6542 33.4392 24.7512L33.4397 24.7516C33.5582 24.8445 33.6278 24.9866 33.6278 25.1364V28.5715Z" fill="white"/>
<path fill-rule="evenodd" clip-rule="evenodd" d="M30.596 34.433C30.6393 34.5543 30.6299 34.6908 30.5735 34.8064L30.5738 34.8064C30.5155 34.924 30.4158 35.0131 30.2917 35.0548L28.5106 35.6482L30.2221 36.1354C30.3462 36.1714 30.4515 36.2548 30.5136 36.3686C30.5757 36.4823 30.5888 36.615 30.5531 36.7401L29.9381 38.8293C29.8761 39.0397 29.6861 39.1762 29.4773 39.1762C29.4341 39.1762 29.3889 39.1686 29.3457 39.1572L23.2179 37.4112L17.5941 39.2861C17.5452 39.3032 17.4945 39.3108 17.4437 39.3108C17.2443 39.3108 17.0581 39.1857 16.9923 38.9847L16.2832 36.924C16.24 36.8027 16.2494 36.6662 16.3058 36.5506C16.3622 36.433 16.4638 36.3458 16.586 36.3041L18.0718 35.8093L16.287 35.3012C16.1628 35.2652 16.0575 35.1818 15.9955 35.0681C15.9334 34.9543 15.9202 34.8216 15.956 34.6965L16.571 32.6074C16.6462 32.3514 16.9095 32.2055 17.1634 32.2775L23.3644 34.0443L29.2813 32.0708C29.5315 31.9874 29.8004 32.122 29.8869 32.3723L30.596 34.433ZM17.3592 33.341L17.0169 34.4993L19.7026 35.2652L21.7339 34.5884L17.3592 33.341ZM29.4901 36.9354L29.1478 38.0937L24.8483 36.8671L26.8796 36.1904L29.4901 36.9354ZM17.3499 37.0718L17.7429 38.215L29.5262 34.287L29.1331 33.1438L17.3499 37.0718Z" fill="white"/>
</g>
<defs>
<filter id="filter0_d" x="0" y="0.484131" width="46.5188" height="46.8267" filterUnits="userSpaceOnUse" color-interpolation-filters="sRGB">
<feFlood flood-opacity="0" result="BackgroundImageFix"/>
<feColorMatrix in="SourceAlpha" type="matrix" values="0 0 0 0 0 0 0 0 0 0 0 0 0 0 0 0 0 0 127 0"/>
<feOffset dy="4"/>
<feGaussianBlur stdDeviation="2"/>
<feColorMatrix type="matrix" values="0 0 0 0 0 0 0 0 0 0 0 0 0 0 0 0 0 0 0.25 0"/>
<feBlend mode="normal" in2="BackgroundImageFix" result="effect1_dropShadow"/>
<feBlend mode="normal" in="SourceGraphic" in2="effect1_dropShadow" result="shape"/>
</filter>
</defs>
</svg>

<svg width="47" height="48" fill="none" xmlns="http://www.w3.org/2000/svg"><g filter="url(#filter0_d)" fill="#fff"><path d="M42.037 32.188H33.75a.484.484 0 000 .97h8.287a.484.484 0 000-.97zm0 6.152h-9.291a.484.484 0 000 .97h9.291a.484.484 0 000-.97zM4.481 35.692h7.493a.484.484 0 000-.971H4.481a.484.484 0 00-.481.485c0 .27.216.486.481.486z"/><path fill-rule="evenodd" clip-rule="evenodd" d="M7.745.535A.478.478 0 018.3.627a.49.49 0 01.088.562 4.263 4.263 0 00-.45 1.91c0 2.378 1.93 4.314 4.3 4.314a4.25 4.25 0 001.907-.453.478.478 0 01.555.092.488.488 0 01.09.56 5.231 5.231 0 01-4.711 2.94c-2.902 0-5.263-2.372-5.263-5.286A5.258 5.258 0 017.745.535zm5.383 7.772a5.155 5.155 0 01-.89.076c-2.902 0-5.262-2.37-5.26-5.284 0-.303.024-.6.075-.894a4.286 4.286 0 00-1.274 3.061c0 2.38 1.93 4.315 4.3 4.315a4.256 4.256 0 003.049-1.274zM42.039 24.41h-.002a.484.484 0 00-.481.483l-.012 2.592L23.677.923c-.179-.267-.617-.267-.797 0L5.025 27.466l.012-2.75a.483.483 0 00-.48-.488h-.002a.484.484 0 00-.481.483l-.017 4.342a.486.486 0 00.481.487.485.485 0 00.399-.212l2.81-4.177v3.905c0 .268.216.486.481.486h10.724a4.368 4.368 0 004.168 3.094l.019-.001a.226.226 0 01.028 0h.027l.01-.002a4.366 4.366 0 004.081-3.091H38.33a.484.484 0 00.482-.486v-3.905l2.81 4.177a.477.477 0 00.538.191.485.485 0 00.34-.463l.019-4.159a.482.482 0 00-.48-.487zm-18.806 7.25h-.006l-.07.003a1.535 1.535 0 01-1.512-1.531c0-.552.805-1.822 1.531-2.78.726.958 1.531 2.228 1.531 2.78 0 .824-.656 1.497-1.474 1.528zm2.435-1.53c0 .144-.018.28-.041.417.551-.607.89-1.409.886-2.29 0-1.454-2.19-4.548-3.397-6.088-1.205 1.54-3.397 4.636-3.397 6.088 0 .955.397 1.82 1.031 2.44a2.567 2.567 0 01-.07-.567c0-1.229 1.77-3.437 2.124-3.868a.496.496 0 01.741 0c.355.43 2.123 2.64 2.123 3.868zm-2.177-9.041a.496.496 0 00-.742 0c-.408.495-3.989 4.908-3.989 7.168 0 .076.005.151.01.226l.005.089h-4.848v-3.2c.628-.512 2.71-2.287 4.818-4.92 1.712-2.137 3.666-5.157 4.552-8.6.886 3.445 2.84 6.463 4.551 8.6 2.109 2.633 4.19 4.408 4.82 4.92v3.2h-5.205c.007-.104.015-.209.015-.315.002-2.26-3.58-6.673-3.987-7.168zm10.137 7.483h4.22l.003-4.852L23.28 2.061 8.71 23.721v4.85h4.252v-3.435c0-.151.07-.293.188-.384.117-.092 9.663-7.635 9.663-16.562 0-.267.217-.485.482-.485s.481.218.481.485c0 8.924 9.54 16.464 9.663 16.561a.49.49 0 01.189.385v3.436z"/><path fill-rule="evenodd" clip-rule="evenodd" d="M30.596 34.433a.488.488 0 01-.304.622l-1.781.593 1.711.487a.486.486 0 01.331.605l-.615 2.09a.48.48 0 01-.592.327l-6.128-1.746-5.624 1.875a.474.474 0 01-.602-.301l-.709-2.061a.486.486 0 01.303-.62l1.486-.495-1.785-.508a.485.485 0 01-.331-.605l.615-2.089a.48.48 0 01.592-.33l6.201 1.767 5.917-1.973a.48.48 0 01.606.301l.709 2.061zm-13.237-1.092l-.342 1.158 2.686.766 2.03-.677-4.374-1.247zm12.131 3.594l-.342 1.159-4.3-1.227 2.032-.677 2.61.745zm-12.14.137l.393 1.143 11.783-3.928-.393-1.143-11.783 3.928z"/></g><defs><filter id="filter0_d" x="0" y=".484" width="46.519" height="46.827" filterUnits="userSpaceOnUse" color-interpolation-filters="sRGB"><feFlood flood-opacity="0" result="BackgroundImageFix"/><feColorMatrix in="SourceAlpha" values="0 0 0 0 0 0 0 0 0 0 0 0 0 0 0 0 0 0 127 0"/><feOffset dy="4"/><feGaussianBlur stdDeviation="2"/><feColorMatrix values="0 0 0 0 0 0 0 0 0 0 0 0 0 0 0 0 0 0 0.25 0"/><feBlend in2="BackgroundImageFix" result="effect1_dropShadow"/><feBlend in="SourceGraphic" in2="effect1_dropShadow" result="shape"/></filter></defs></svg>
